X: 13
T: Fisher's Hornpipe
I: Fisher's Hornpipe	R-24	D	hornpipe	Set 9, 24
%%muscispace	2pt
%%staffsep 41pt
M: C|
R: hornpipe
K: D
(3ABc| "D"dAFA "G"GBAG| "D"FDFD "G"GBAG| "D"FDFD "G"GFGB| "D"AFDF "A"E2 (3ABc|
       "D"dAFA "G"GBAG| "D"FDFD "G"GBAG| "D"FAdf "A"gece| "D"d2d2 d2 :|
|:cd| "A"ecAc efge| "D"fdAd fgaf| "A"ecAc efgf| "E"edcB "A"A2A2|
    "G"BGDG BcdB| "D"AFDF ABcA| "G"BcdB "A"AGFE| "D"D2D2 D2 :|
%%text Roaring Jelly  R-24
%%text 08/29/98 

#include "RightHeader.h"
% ---------- set 25 ----------
% Woodchopper's Reel (D) / Reel de Montreal (G) / Dancing Bear (Em)
%%text Set 25
%%vskip -1cm
